svg/mono/maestro.svg

<?xml version="1.0" encoding="UTF-8" standalone="no"?>
<svg width="750px" height="471px" viewBox="0 0 750 471" version="1.1" xmlns="http://www.w3.org/2000/svg" xmlns:xlink="http://www.w3.org/1999/xlink" xmlns:sketch="http://www.bohemiancoding.com/sketch/ns">
    <!-- Generator: Sketch 3.3.1 (12005) - http://www.bohemiancoding.com/sketch -->
    <title>maestro</title>
    <desc>Created with Sketch.</desc>
    <defs></defs>
    <g id="Page-1" stroke="none" stroke-width="1" fill="none" fill-rule="evenodd" sketch:type="MSPage">
        <g id="maestro" sketch:type="MSLayerGroup" fill="#393939">
            <path d="M0,40.0047706 C0,17.9107459 17.9143492,0 39.9919369,0 L710.008063,0 C732.095,0 750,17.9064659 750,40.0047706 L750,430.995229 C750,453.089254 732.085651,471 710.008063,471 L39.9919369,471 C17.905,471 0,453.093534 0,430.995229 L0,40.0047706 Z M703.577624,235.048119 C703.577624,347.472648 612.06463,438.943694 499.532638,438.943694 C452.632514,438.943694 409.361865,423.065597 374.852176,396.350121 C340.337922,423.065597 297.0901,438.943694 250.171258,438.943694 C137.675789,438.943694 46.1650778,347.472648 46.1650778,235.048119 C46.1650778,122.652331 137.675789,31.1949718 250.171258,31.1949718 C297.0901,31.1949718 340.337922,47.1123023 374.852176,73.8008616 C409.361865,47.1123023 452.632514,31.1949718 499.532638,31.1949718 C612.06463,31.1949718 703.577624,122.652331 703.577624,235.048119 L703.577624,235.048119 Z M499.532638,49.4526836 C458.152056,49.4526836 419.953541,63.0022599 389.050501,85.863178 C419.223081,113.897571 440.85384,150.937641 449.738065,192.609203 L431.038278,192.609203 C422.318407,155.326427 402.312922,122.355791 374.852176,97.5012147 C347.409692,122.355791 327.413338,155.326427 318.684336,192.609203 L299.99368,192.609203 C308.868774,150.937641 330.508664,113.897571 360.658417,85.863178 C329.796465,63.0022599 291.561428,49.4526836 250.171258,49.4526836 C147.607311,49.4526836 64.4370885,132.533941 64.4370885,235.048119 C64.4370885,337.560928 147.607311,420.702405 250.171258,420.702405 C291.561428,420.702405 329.796465,407.142336 360.658417,384.281874 C334.311623,359.75121 314.456796,328.418842 303.929035,293.015669 L323.044271,293.015669 C333.211367,323.957975 351.294828,351.281129 374.852176,372.653874 C398.464309,351.281129 416.511247,323.957975 426.678343,293.015669 L445.789013,293.015669 C435.297775,328.418842 415.410991,359.75121 389.050501,384.281874 C419.953541,407.142336 458.152056,420.702405 499.532638,420.702405 C602.125803,420.702405 685.284156,337.560928 685.284156,235.048119 C685.284156,132.533941 602.125803,49.4526836 499.532638,49.4526836 L499.532638,49.4526836 Z M371.15422,278.559595 C363.607651,280.498507 356.298482,281.45154 348.592124,281.45154 C324.021262,281.45154 311.187986,270.254662 311.187986,248.819871 C311.187986,223.840292 327.486384,205.447541 349.646727,205.447541 C367.739318,205.447541 379.303419,215.776242 379.303419,231.913468 C379.303419,237.245249 378.527305,242.459782 376.600716,249.876921 L332.88266,249.876921 C331.303039,260.323325 338.945482,264.921056 351.961373,264.921056 C359.754473,264.921056 366.780589,263.536445 374.578254,260.382177 L371.15422,278.559595 L371.15422,278.559595 Z M359.375546,235.147573 C359.375546,233.531205 361.799762,222.323835 349.162797,222.068811 C342.182334,222.068811 337.164984,226.729044 335.12426,235.147573 L359.375546,235.147573 L359.375546,235.147573 Z M390.62099,230.213155 C390.62099,239.453328 395.830086,245.858126 407.66811,250.57721 C416.698427,254.287148 418.122825,255.352866 418.122825,258.671371 C418.122825,263.29602 414.150946,265.371797 405.271287,265.332562 C398.605836,265.291959 392.515622,264.472141 385.361675,262.48122 L382.15678,279.293644 C388.534613,280.783641 397.501014,281.289583 405.453902,281.45154 C429.043208,281.45154 439.917938,273.720982 439.917938,257.023068 C439.917938,246.998662 435.393648,241.082014 424.153689,236.67498 C414.79923,232.950444 413.721801,232.105534 413.721801,228.726808 C413.721801,224.747247 417.428888,222.728497 424.683273,222.728497 C429.066035,222.728497 435.069507,223.138178 440.776229,223.840292 L443.953731,206.869562 C438.169398,206.099472 429.344523,205.447541 424.254127,205.447541 C399.213031,205.447541 390.543379,216.694145 390.62099,230.213155 L390.62099,230.213155 Z M296.414424,280.275418 L278.050193,280.275418 L278.499882,272.576795 C272.907295,278.600198 265.472577,281.45154 255.336069,281.45154 C243.376606,281.45154 235.155274,273.266592 235.155274,261.522713 C235.155274,243.648222 249.427558,233.337314 273.936331,233.337314 C276.44181,233.337314 279.673184,233.490602 282.951125,233.866523 C283.623606,231.451778 283.805308,230.435788 283.805308,229.133295 C283.805308,224.237655 279.967651,222.443363 269.627527,222.443363 C259.471389,222.485791 252.616474,223.991756 246.258729,225.700736 L249.386469,209.302099 C260.398617,206.525576 267.610544,205.447541 275.749699,205.447541 C294.725234,205.447541 304.769065,212.855555 304.769065,226.843097 C304.919722,230.558966 303.61859,238.070541 302.965741,241.319246 C302.212453,246.102201 296.966835,273.720982 296.414424,280.275418 L296.414424,280.275418 Z M280.311881,247.649225 C278.00043,247.390551 276.97322,247.319381 275.371686,247.319381 C262.843833,247.319381 256.527177,251.017458 256.527177,258.386237 C256.527177,263.051489 259.614285,265.902831 264.443541,265.902831 C273.415421,265.902831 279.926563,258.386237 280.311881,247.649225 L280.311881,247.649225 Z M484.211231,262.971651 C482.686395,263.495386 480.768936,263.702051 478.262544,263.702051 C473.044317,263.702051 470.761629,262.069715 470.761629,258.284501 C470.761629,255.923134 476.938584,224.937945 476.938584,224.937945 L488.205936,224.937945 L491.219085,207.115462 L480.015649,207.115462 L483.35294,189.638333 L461.512174,189.638333 C461.512174,189.638333 451.733135,242.459782 451.12594,246.102201 C450.514179,249.725001 447.738429,262.725751 448.11279,265.491325 C448.11279,275.713271 454.244092,281.45154 465.511444,281.45154 C470.556187,281.45154 475.267656,280.783641 481.275693,279.129863 L484.211231,262.971651 L484.211231,262.971651 Z M588.822293,222.851219 C577.760383,222.851219 570.871228,235.942756 570.871228,247.524222 C570.871228,257.308202 575.559871,263.821579 583.362101,263.719843 C594.058781,263.719843 600.824671,253.930845 600.824671,237.451914 C600.824671,229.958131 597.765868,222.851219 588.822293,222.851219 L588.822293,222.851219 Z M581.526819,281.45154 C556.924,281.45154 546.998869,266.50914 546.998869,248.249603 C546.998869,222.728497 563.804024,205.447541 589.817545,205.447541 C612.416164,205.447541 624.413977,219.677333 624.413977,237.93687 C624.413977,268.223138 606.403562,281.45154 581.526819,281.45154 L581.526819,281.45154 Z M505.522413,207.06391 C502.751229,229.703564 497.816056,252.656637 493.99027,275.301766 L493.049802,280.275418 L515.132533,280.275418 C523.080856,236.47379 525.73334,223.991756 542.392403,228.400614 C543.250694,226.050196 550.418337,207.696223 550.418337,207.696223 C538.808581,203.42286 531.312231,209.539331 524.546342,218.159051 C525.153537,214.240167 526.304012,210.494188 526.016393,207.06391 L505.522413,207.06391 L505.522413,207.06391 Z M238.326386,190.837722 L202.602306,190.837722 L178.441415,246.182494 L176.62759,190.837722 L142.312386,190.837722 L125.329638,280.275418 L145.265729,280.275418 L158.364254,211.932633 L162.009708,280.275418 L182.045324,280.275418 L212.105596,211.513828 L199.04816,280.275418 L221.009909,280.275418 L238.326386,190.837722 L238.326386,190.837722 Z M630.969859,284.039189 C634.640422,284.039189 637.612483,281.063301 637.612483,277.441869 C637.612483,273.801275 634.640422,270.843179 630.969859,270.843179 C627.344949,270.843179 624.413977,273.801275 624.413977,277.441869 C624.413977,281.063301 627.344949,284.039189 630.969859,284.039189 L630.969859,284.039189 Z M625.957074,277.441869 C625.957074,274.67447 628.198675,272.414839 630.969859,272.414839 C633.777566,272.414839 635.982643,274.67447 635.982643,277.441869 C635.982643,280.172314 633.777566,282.453387 630.969859,282.453387 C628.198675,282.453387 625.957074,280.172314 625.957074,277.441869 L625.957074,277.441869 Z M630.116133,280.29321 L628.773912,280.29321 L628.773912,274.554942 L631.220955,274.554942 C631.704885,274.554942 632.234468,274.554942 632.681875,274.835058 C633.129282,275.120192 633.412336,275.713271 633.412336,276.260729 C633.412336,276.934102 633.047106,277.525812 632.398822,277.769887 L633.45799,280.29321 L631.951415,280.29321 L631.093124,278.051371 L630.116133,278.051371 L630.116133,280.29321 L630.116133,280.29321 Z M630.116133,277.059105 L630.851159,277.059105 C631.129647,277.059105 631.421831,277.059105 631.663796,276.934102 C631.910327,276.791763 631.992503,276.506629 631.992503,276.260729 C631.992503,276.016198 631.869238,275.793565 631.663796,275.651226 C631.458354,275.529873 631.052036,275.569107 630.805505,275.569107 L630.116133,275.569107 L630.116133,277.059105 L630.116133,277.059105 Z M676.559719,348.841292 C676.559719,345.209367 679.540911,342.238953 683.170386,342.238953 C686.795296,342.238953 689.767357,345.209367 689.767357,348.841292 C689.767357,352.462725 686.795296,355.434963 683.170386,355.434963 C679.540911,355.434963 676.559719,352.462725 676.559719,348.841292 L676.559719,348.841292 Z M683.170386,353.843686 C685.937005,353.843686 688.215128,351.566263 688.215128,348.841292 C688.215128,346.068419 685.937005,343.828405 683.170386,343.828405 C680.394636,343.828405 678.153036,346.068419 678.153036,348.841292 C678.153036,351.566263 680.394636,353.843686 683.170386,353.843686 L683.170386,353.843686 Z M682.266441,349.406542 L683.247997,349.406542 L684.147377,351.728219 L685.649386,351.728219 L684.590218,349.165661 C685.201979,348.919761 685.608298,348.349493 685.608298,347.674295 C685.608298,347.125469 685.284156,346.515966 684.877837,346.21304 C684.425865,345.910113 683.859758,345.910113 683.371263,345.910113 L680.928786,345.910113 L680.928786,351.728219 L682.266441,351.728219 L682.266441,349.406542 L682.266441,349.406542 Z M682.266441,346.964881 L683.006032,346.964881 C683.247997,346.964881 683.613228,346.923822 683.81867,347.045175 C684.019546,347.208956 684.1839,347.410603 684.1839,347.656503 C684.1839,347.91837 684.060635,348.185712 683.81867,348.349493 C683.613228,348.453054 683.289086,348.453054 683.042555,348.453054 L682.266441,348.453054 L682.266441,346.964881 L682.266441,346.964881 Z" id="Rectangle-1" sketch:type="MSShapeGroup"></path>
        </g>
    </g>
</svg>

<?xml version="1.0" encoding="UTF-8" standalone="no"?>
<svg
   xmlns:sketch="http://www.bohemiancoding.com/sketch/ns"
   xmlns:dc="http://purl.org/dc/elements/1.1/"
   xmlns:cc="http://creativecommons.org/ns#"
   xmlns:rdf="http://www.w3.org/1999/02/22-rdf-syntax-ns#"
   xmlns:svg="http://www.w3.org/2000/svg"
   xmlns="http://www.w3.org/2000/svg"
   xmlns:sodipodi="http://sodipodi.sourceforge.net/DTD/sodipodi-0.dtd"
   xmlns:inkscape="http://www.inkscape.org/namespaces/inkscape"
   width="750px"
   height="471px"
   viewBox="0 0 750 471"
   version="1.1"
   id="svg2"
   inkscape:version="0.91 r13725"
   sodipodi:docname="maestro.svg">
  <metadata
     id="metadata15">
    <rdf:RDF>
      <cc:Work
         rdf:about="">
        <dc:format>image/svg+xml</dc:format>
        <dc:type
           rdf:resource="http://purl.org/dc/dcmitype/StillImage" />
      </cc:Work>
    </rdf:RDF>
  </metadata>
  <sodipodi:namedview
     pagecolor="#ffffff"
     bordercolor="#666666"
     borderopacity="1"
     objecttolerance="10"
     gridtolerance="10"
     guidetolerance="10"
     inkscape:pageopacity="0"
     inkscape:pageshadow="2"
     inkscape:window-width="1440"
     inkscape:window-height="851"
     id="namedview13"
     showgrid="false"
     inkscape:zoom="0.768"
     inkscape:cx="499.23885"
     inkscape:cy="189.4823"
     inkscape:window-x="0"
     inkscape:window-y="300"
     inkscape:window-maximized="1"
     inkscape:current-layer="svg2" />
  <!-- Generator: Sketch 3.3.1 (12005) - http://www.bohemiancoding.com/sketch -->
  <title
     id="title4">maestro</title>
  <desc
     id="desc6">Created with Sketch.</desc>
  <defs
     id="defs8" />
  <g
     id="Page-1"
     stroke="none"
     stroke-width="1"
     fill="none"
     fill-rule="evenodd"
     sketch:type="MSPage">
    <g
       id="maestro"
       sketch:type="MSLayerGroup"
       fill="#393939">
      <path
         d="M 0,40.004771 C 0,17.910746 17.914349,0 39.991937,0 L 710.00806,0 C 732.095,0 750,17.906466 750,40.004771 l 0,390.990459 C 750,453.08925 732.08565,471 710.00806,471 L 39.991937,471 C 17.905,471 0,453.09353 0,430.99523 Z M 703.57762,235.04812 c 0,112.42453 -91.51299,203.89557 -204.04498,203.89557 -46.90013,0 -90.17077,-15.87809 -124.68046,-42.59357 -34.51426,26.71548 -77.76208,42.59357 -124.68092,42.59357 -112.49547,0 -204.006182,-91.47104 -204.006182,-203.89557 0,-112.39579 91.510712,-203.853148 204.006182,-203.853148 46.91884,0 90.16666,15.91733 124.68092,42.60589 34.50969,-26.68856 77.78033,-42.60589 124.68046,-42.60589 112.53199,0 204.04498,91.457358 204.04498,203.853148 z M 499.53264,49.452684 c -41.38058,0 -79.5791,13.549576 -110.48214,36.410494 30.17258,28.034392 51.80334,65.074462 60.68756,106.746022 l -18.69978,0 c -8.71987,-37.28277 -28.72536,-70.25341 -56.1861,-95.107985 -27.44249,24.854575 -47.43884,57.825215 -56.16784,95.107985 l -18.69066,0 C 308.86877,150.93764 330.50866,113.89757 360.65842,85.863178 329.79646,63.00226 291.56143,49.452684 250.17126,49.452684 c -102.56395,0 -185.734171,83.081256 -185.734171,185.595436 0,102.51281 83.170221,185.65428 185.734171,185.65428 41.39017,0 79.6252,-13.56006 110.48716,-36.42053 -26.3468,-24.53066 -46.20162,-55.86303 -56.72939,-91.2662 l 19.11524,0 c 10.1671,30.9423 28.25056,58.26546 51.80791,79.6382 23.61213,-21.37274 41.65907,-48.6959 51.82616,-79.6382 l 19.11067,0 c -10.49124,35.40317 -30.37802,66.73554 -56.73851,91.2662 30.90304,22.86047 69.10156,36.42053 110.48214,36.42053 102.59316,0 185.75152,-83.14147 185.75152,-185.65428 0,-102.51418 -83.15836,-185.595436 -185.75152,-185.595436 z M 371.15422,278.55959 c -7.54657,1.93892 -14.85574,2.89195 -22.5621,2.89195 -24.57086,0 -37.40413,-11.19688 -37.40413,-32.63167 0,-24.97958 16.29839,-43.37233 38.45874,-43.37233 18.09259,0 29.65669,10.3287 29.65669,26.46593 0,5.33178 -0.77612,10.54631 -2.7027,17.96345 l -43.71806,0 c -1.57962,10.4464 6.06282,15.04414 19.07871,15.04414 7.7931,0 14.81922,-1.38461 22.61688,-4.53888 l -3.42403,18.17741 z m -11.77867,-43.41202 c 0,-1.61637 2.42421,-12.82374 -10.21275,-13.07876 -6.98047,0 -11.99782,4.66023 -14.03854,13.07876 l 24.25129,0 z m 31.24544,-4.93442 c 0,9.24018 5.2091,15.64498 17.04712,20.36406 9.03032,3.70994 10.45471,4.77566 10.45471,8.09416 0,4.62465 -3.97187,6.70043 -12.85153,6.66119 -6.66545,-0.0406 -12.75567,-0.86042 -19.90962,-2.85134 l -3.20489,16.81242 c 6.37783,1.49 15.34423,1.99594 23.29712,2.1579 23.58931,0 34.46404,-7.73056 34.46404,-24.42847 0,-10.02441 -4.52429,-15.94106 -15.76425,-20.34809 -9.35446,-3.72454 -10.43189,-4.56945 -10.43189,-7.94817 0,-3.97956 3.70709,-5.99831 10.96147,-5.99831 4.38276,0 10.38624,0.40968 16.09296,1.11179 l 3.1775,-16.97073 c -5.78433,-0.77009 -14.60921,-1.42202 -19.6996,-1.42202 -25.0411,0 -33.71075,11.2466 -33.63314,24.76561 z m -94.20657,50.06227 -18.36423,0 0.44969,-7.69863 c -5.59259,6.02341 -13.0273,8.87475 -23.16381,8.87475 -11.95946,0 -20.1808,-8.18495 -20.1808,-19.92883 0,-17.87449 14.27229,-28.1854 38.78106,-28.1854 2.50548,0 5.73685,0.15329 9.01479,0.52921 0.67249,-2.41474 0.85419,-3.43073 0.85419,-4.73323 0,-4.89564 -3.83766,-6.68993 -14.17778,-6.68993 -10.15614,0.0424 -17.01106,1.5484 -23.3688,3.25738 l 3.12774,-16.39864 c 11.01215,-2.77652 18.22407,-3.85456 26.36323,-3.85456 18.97553,0 29.01936,7.40801 29.01936,21.39556 0.15066,3.71587 -1.15047,11.22744 -1.80332,14.47615 -0.75329,4.78295 -5.99891,32.40173 -6.55132,38.95617 z m -16.10254,-32.6262 c -2.31145,-0.25867 -3.33866,-0.32984 -4.94019,-0.32984 -12.52786,0 -18.84451,3.69808 -18.84451,11.06686 0,4.66525 3.0871,7.51659 7.91636,7.51659 8.97188,0 15.48302,-7.51659 15.86834,-18.25361 z m 203.89935,15.32243 c -1.52484,0.52374 -3.44229,0.7304 -5.94869,0.7304 -5.21822,0 -7.50091,-1.63234 -7.50091,-5.41755 0,-2.36137 6.17695,-33.34655 6.17695,-33.34655 l 11.26736,0 3.01314,-17.82249 -11.20343,0 3.33729,-17.47713 -21.84077,0 c 0,0 -9.77904,52.82145 -10.38623,56.46387 -0.61176,3.6228 -3.38751,16.62355 -3.01315,19.38913 0,10.22194 6.1313,15.96021 17.39865,15.96021 5.04475,0 9.75622,-0.6679 15.76425,-2.32168 l 2.93554,-16.15821 z m 104.61106,-40.12043 c -11.06191,0 -17.95106,13.09154 -17.95106,24.673 0,9.78398 4.68864,16.29736 12.49087,16.19562 10.69668,0 17.46257,-9.789 17.46257,-26.26793 0,-7.49378 -3.0588,-14.60069 -12.00238,-14.60069 z m -7.29547,58.60032 c -24.60282,0 -34.52795,-14.9424 -34.52795,-33.20194 0,-25.5211 16.80515,-42.80206 42.81867,-42.80206 22.59862,0 34.59644,14.22979 34.59644,32.48933 0,30.28627 -18.01042,43.51467 -42.88716,43.51467 z m -76.00441,-74.38763 c -2.77118,22.63965 -7.70635,45.59273 -11.53214,68.23786 l -0.94047,4.97365 22.08273,0 c 7.94833,-43.80163 10.60081,-56.28366 27.25987,-51.87481 0.85829,-2.35041 8.02594,-20.70439 8.02594,-20.70439 -11.60976,-4.27336 -19.10611,1.84311 -25.872,10.46283 0.6072,-3.91888 1.75767,-7.66486 1.47005,-11.09514 l -20.49398,0 z m -267.19602,-16.22619 -35.72408,0 -24.1609,55.34477 -1.81382,-55.34477 -34.3152,0 -16.98275,89.4377 19.93609,0 13.09852,-68.34279 3.64546,68.34279 20.03561,0 30.06028,-68.76159 -13.05744,68.76159 21.96175,0 17.31648,-89.4377 z"
         id="Rectangle-1"
         sketch:type="MSShapeGroup"
         inkscape:connector-curvature="0"
         sodipodi:nodetypes="ssssssssscscssscsccccccccccssscccccccsscccssssccsccccccccccsccccscssccscccccssscscccscccccssscccssccccccccsccccscscccsssccccccccccccccccccccccccccc" />
    </g>
  </g>
</svg>
